images/3235090.svg

<?xml version="1.0" encoding="UTF-8"?>
<svg xmlns="http://www.w3.org/2000/svg" xmlns:xlink="http://www.w3.org/1999/xlink" width="300pt" height="300pt" viewBox="0 0 300 300" version="1.1">
<defs>
<g>
<symbol overflow="visible" id="glyph0-0">
<path style="stroke:none;" d="M 0.640625 2.296875 L 0.640625 -9.171875 L 7.140625 -9.171875 L 7.140625 2.296875 Z M 1.375 1.578125 L 6.421875 1.578125 L 6.421875 -8.4375 L 1.375 -8.4375 Z M 1.375 1.578125 "/>
</symbol>
<symbol overflow="visible" id="glyph0-1">
<path style="stroke:none;" d="M 5.125 -8.609375 C 4.1875 -8.609375 3.441406 -8.257812 2.890625 -7.5625 C 2.347656 -6.875 2.078125 -5.929688 2.078125 -4.734375 C 2.078125 -3.535156 2.347656 -2.585938 2.890625 -1.890625 C 3.441406 -1.203125 4.1875 -0.859375 5.125 -0.859375 C 6.050781 -0.859375 6.785156 -1.203125 7.328125 -1.890625 C 7.878906 -2.585938 8.15625 -3.535156 8.15625 -4.734375 C 8.15625 -5.929688 7.878906 -6.875 7.328125 -7.5625 C 6.785156 -8.257812 6.050781 -8.609375 5.125 -8.609375 Z M 5.125 -9.65625 C 6.445312 -9.65625 7.503906 -9.207031 8.296875 -8.3125 C 9.097656 -7.414062 9.5 -6.222656 9.5 -4.734375 C 9.5 -3.234375 9.097656 -2.035156 8.296875 -1.140625 C 7.503906 -0.253906 6.445312 0.1875 5.125 0.1875 C 3.789062 0.1875 2.722656 -0.253906 1.921875 -1.140625 C 1.128906 -2.035156 0.734375 -3.234375 0.734375 -4.734375 C 0.734375 -6.222656 1.128906 -7.414062 1.921875 -8.3125 C 2.722656 -9.207031 3.789062 -9.65625 5.125 -9.65625 Z M 5.125 -9.65625 "/>
</symbol>
<symbol overflow="visible" id="glyph0-2">
<path style="stroke:none;" d="M 1.28125 -9.484375 L 3 -9.484375 L 7.203125 -1.546875 L 7.203125 -9.484375 L 8.453125 -9.484375 L 8.453125 0 L 6.71875 0 L 2.515625 -7.921875 L 2.515625 0 L 1.28125 0 Z M 1.28125 -9.484375 "/>
</symbol>
<symbol overflow="visible" id="glyph0-3">
<path style="stroke:none;" d="M 1.28125 -9.484375 L 2.5625 -9.484375 L 2.5625 -5.59375 L 7.21875 -5.59375 L 7.21875 -9.484375 L 8.5 -9.484375 L 8.5 0 L 7.21875 0 L 7.21875 -4.515625 L 2.5625 -4.515625 L 2.5625 0 L 1.28125 0 Z M 1.28125 -9.484375 "/>
</symbol>
</g>
</defs>
<g id="surface49257">
<rect x="0" y="0" width="300" height="300" style="fill:rgb(100%,100%,100%);fill-opacity:1;stroke:none;"/>
<path style="fill:none;stroke-width:1.2;stroke-linecap:butt;stroke-linejoin:miter;stroke:rgb(0%,0%,0%);stroke-opacity:1;stroke-miterlimit:10;" d="M 216.308594 35.25 L 207.410156 49.109375 "/>
<path style="fill:none;stroke-width:1.2;stroke-linecap:butt;stroke-linejoin:miter;stroke:rgb(100%,0%,0%);stroke-opacity:1;stroke-miterlimit:10;" d="M 207.410156 49.109375 L 198.511719 62.96875 "/>
<path style="fill:none;stroke-width:1.2;stroke-linecap:butt;stroke-linejoin:miter;stroke:rgb(100%,0%,0%);stroke-opacity:1;stroke-miterlimit:10;" d="M 198.511719 62.96875 L 206.066406 77.601562 "/>
<path style="fill:none;stroke-width:1.2;stroke-linecap:butt;stroke-linejoin:miter;stroke:rgb(0%,0%,0%);stroke-opacity:1;stroke-miterlimit:10;" d="M 206.066406 77.601562 L 213.621094 92.238281 "/>
<path style=" stroke:none;fill-rule:nonzero;fill:rgb(100%,100%,100%);fill-opacity:1;" d="M 193.511719 54.96875 L 204.511719 54.96875 L 204.511719 70.96875 L 193.511719 70.96875 Z M 193.511719 54.96875 "/>
<g style="fill:rgb(100%,0%,0%);fill-opacity:1;">
  <use xlink:href="#glyph0-1" x="193.511719" y="67.344727"/>
</g>
<path style="fill:none;stroke-width:1.2;stroke-linecap:butt;stroke-linejoin:miter;stroke:rgb(0%,0%,0%);stroke-opacity:1;stroke-miterlimit:10;" d="M 213.621094 92.238281 L 195.828125 119.957031 "/>
<path style="fill:none;stroke-width:1.2;stroke-linecap:butt;stroke-linejoin:miter;stroke:rgb(0%,0%,0%);stroke-opacity:1;stroke-miterlimit:10;" d="M 195.828125 119.957031 L 203.382812 134.589844 "/>
<path style="fill:none;stroke-width:1.2;stroke-linecap:butt;stroke-linejoin:miter;stroke:rgb(0%,0%,100%);stroke-opacity:1;stroke-miterlimit:10;" d="M 203.382812 134.589844 L 210.933594 149.226562 "/>
<path style="fill:none;stroke-width:1.2;stroke-linecap:butt;stroke-linejoin:miter;stroke:rgb(0%,0%,100%);stroke-opacity:1;stroke-miterlimit:10;" d="M 210.933594 149.226562 L 202.039062 163.082031 "/>
<path style="fill:none;stroke-width:1.2;stroke-linecap:butt;stroke-linejoin:miter;stroke:rgb(0%,0%,0%);stroke-opacity:1;stroke-miterlimit:10;" d="M 202.039062 163.082031 L 193.140625 176.941406 "/>
<path style=" stroke:none;fill-rule:nonzero;fill:rgb(100%,100%,100%);fill-opacity:1;" d="M 200.933594 141.226562 L 220.933594 141.226562 L 220.933594 157.226562 L 200.933594 157.226562 Z M 200.933594 141.226562 "/>
<g style="fill:rgb(0%,0%,100%);fill-opacity:1;">
  <use xlink:href="#glyph0-2" x="200.933594" y="153.602539"/>
  <use xlink:href="#glyph0-3" x="210.90332" y="153.602539"/>
</g>
<path style="fill:none;stroke-width:1.2;stroke-linecap:butt;stroke-linejoin:miter;stroke:rgb(0%,0%,0%);stroke-opacity:1;stroke-miterlimit:10;" d="M 193.140625 176.941406 L 176.691406 176.167969 "/>
<path style="fill:none;stroke-width:1.2;stroke-linecap:butt;stroke-linejoin:miter;stroke:rgb(0%,0%,100%);stroke-opacity:1;stroke-miterlimit:10;" d="M 176.691406 176.167969 L 160.238281 175.390625 "/>
<path style="fill:none;stroke-width:1.2;stroke-linecap:butt;stroke-linejoin:miter;stroke:rgb(0%,0%,0%);stroke-opacity:1;stroke-miterlimit:10;" d="M 189.488281 184.53125 L 176.324219 183.910156 "/>
<path style="fill:none;stroke-width:1.2;stroke-linecap:butt;stroke-linejoin:miter;stroke:rgb(0%,0%,100%);stroke-opacity:1;stroke-miterlimit:10;" d="M 176.324219 183.910156 L 163.164062 183.289062 "/>
<path style="fill:none;stroke-width:1.2;stroke-linecap:butt;stroke-linejoin:miter;stroke:rgb(0%,0%,0%);stroke-opacity:1;stroke-miterlimit:10;" d="M 208.25 206.210938 L 193.140625 176.941406 "/>
<path style="fill:none;stroke-width:1.2;stroke-linecap:butt;stroke-linejoin:miter;stroke:rgb(0%,0%,100%);stroke-opacity:1;stroke-miterlimit:10;" d="M 160.238281 175.390625 L 151.34375 189.25 "/>
<path style="fill:none;stroke-width:1.2;stroke-linecap:butt;stroke-linejoin:miter;stroke:rgb(0%,0%,0%);stroke-opacity:1;stroke-miterlimit:10;" d="M 151.34375 189.25 L 142.445312 203.109375 "/>
<path style=" stroke:none;fill-rule:nonzero;fill:rgb(100%,100%,100%);fill-opacity:1;" d="M 155.238281 167.390625 L 165.238281 167.390625 L 165.238281 183.390625 L 155.238281 183.390625 Z M 155.238281 167.390625 "/>
<g style="fill:rgb(0%,0%,100%);fill-opacity:1;">
  <use xlink:href="#glyph0-2" x="155.238281" y="179.766602"/>
</g>
<path style="fill:none;stroke-width:1.2;stroke-linecap:butt;stroke-linejoin:miter;stroke:rgb(0%,0%,0%);stroke-opacity:1;stroke-miterlimit:10;" d="M 142.445312 203.109375 L 150 217.746094 "/>
<path style="fill:none;stroke-width:1.2;stroke-linecap:butt;stroke-linejoin:miter;stroke:rgb(0%,0%,100%);stroke-opacity:1;stroke-miterlimit:10;" d="M 150 217.746094 L 157.554688 232.378906 "/>
<path style="fill:none;stroke-width:1.2;stroke-linecap:butt;stroke-linejoin:miter;stroke:rgb(0%,0%,0%);stroke-opacity:1;stroke-miterlimit:10;" d="M 150.84375 202.484375 L 156.886719 214.191406 "/>
<path style="fill:none;stroke-width:1.2;stroke-linecap:butt;stroke-linejoin:miter;stroke:rgb(0%,0%,100%);stroke-opacity:1;stroke-miterlimit:10;" d="M 156.886719 214.191406 L 162.929688 225.898438 "/>
<path style="fill:none;stroke-width:1.2;stroke-linecap:butt;stroke-linejoin:miter;stroke:rgb(0%,0%,0%);stroke-opacity:1;stroke-miterlimit:10;" d="M 142.445312 203.109375 L 109.542969 201.558594 "/>
<path style="fill:none;stroke-width:1.2;stroke-linecap:butt;stroke-linejoin:miter;stroke:rgb(0%,0%,100%);stroke-opacity:1;stroke-miterlimit:10;" d="M 157.554688 232.378906 L 174.003906 233.15625 "/>
<path style="fill:none;stroke-width:1.2;stroke-linecap:butt;stroke-linejoin:miter;stroke:rgb(0%,0%,0%);stroke-opacity:1;stroke-miterlimit:10;" d="M 174.003906 233.15625 L 190.457031 233.929688 "/>
<path style=" stroke:none;fill-rule:nonzero;fill:rgb(100%,100%,100%);fill-opacity:1;" d="M 152.554688 224.378906 L 162.554688 224.378906 L 162.554688 240.378906 L 152.554688 240.378906 Z M 152.554688 224.378906 "/>
<g style="fill:rgb(0%,0%,100%);fill-opacity:1;">
  <use xlink:href="#glyph0-2" x="152.554688" y="236.754883"/>
</g>
<path style="fill:none;stroke-width:1.2;stroke-linecap:butt;stroke-linejoin:miter;stroke:rgb(0%,0%,0%);stroke-opacity:1;stroke-miterlimit:10;" d="M 190.457031 233.929688 L 205.5625 263.199219 "/>
<path style="fill:none;stroke-width:1.2;stroke-linecap:butt;stroke-linejoin:miter;stroke:rgb(0%,0%,0%);stroke-opacity:1;stroke-miterlimit:10;" d="M 198.851562 233.300781 L 210.9375 256.71875 "/>
<path style="fill:none;stroke-width:1.2;stroke-linecap:butt;stroke-linejoin:miter;stroke:rgb(0%,0%,0%);stroke-opacity:1;stroke-miterlimit:10;" d="M 208.25 206.210938 L 190.457031 233.929688 "/>
<path style="fill:none;stroke-width:1.2;stroke-linecap:butt;stroke-linejoin:miter;stroke:rgb(0%,0%,0%);stroke-opacity:1;stroke-miterlimit:10;" d="M 205.5625 263.199219 L 238.464844 264.75 "/>
<path style="fill:none;stroke-width:1.2;stroke-linecap:butt;stroke-linejoin:miter;stroke:rgb(0%,0%,0%);stroke-opacity:1;stroke-miterlimit:10;" d="M 238.464844 264.75 L 256.257812 237.03125 "/>
<path style="fill:none;stroke-width:1.2;stroke-linecap:butt;stroke-linejoin:miter;stroke:rgb(0%,0%,0%);stroke-opacity:1;stroke-miterlimit:10;" d="M 233.722656 257.792969 L 247.957031 235.617188 "/>
<path style="fill:none;stroke-width:1.2;stroke-linecap:butt;stroke-linejoin:miter;stroke:rgb(0%,0%,0%);stroke-opacity:1;stroke-miterlimit:10;" d="M 256.257812 237.03125 L 241.152344 207.761719 "/>
<path style="fill:none;stroke-width:1.2;stroke-linecap:butt;stroke-linejoin:miter;stroke:rgb(0%,0%,0%);stroke-opacity:1;stroke-miterlimit:10;" d="M 241.152344 207.761719 L 208.25 206.210938 "/>
<path style="fill:none;stroke-width:1.2;stroke-linecap:butt;stroke-linejoin:miter;stroke:rgb(0%,0%,0%);stroke-opacity:1;stroke-miterlimit:10;" d="M 237.496094 215.347656 L 211.175781 214.109375 "/>
<path style="fill:none;stroke-width:1.2;stroke-linecap:butt;stroke-linejoin:miter;stroke:rgb(0%,0%,0%);stroke-opacity:1;stroke-miterlimit:10;" d="M 109.542969 201.558594 L 94.4375 172.289062 "/>
<path style="fill:none;stroke-width:1.2;stroke-linecap:butt;stroke-linejoin:miter;stroke:rgb(0%,0%,0%);stroke-opacity:1;stroke-miterlimit:10;" d="M 101.148438 202.1875 L 89.0625 178.773438 "/>
<path style="fill:none;stroke-width:1.2;stroke-linecap:butt;stroke-linejoin:miter;stroke:rgb(0%,0%,0%);stroke-opacity:1;stroke-miterlimit:10;" d="M 91.75 229.277344 L 109.542969 201.558594 "/>
<path style="fill:none;stroke-width:1.2;stroke-linecap:butt;stroke-linejoin:miter;stroke:rgb(0%,0%,0%);stroke-opacity:1;stroke-miterlimit:10;" d="M 94.4375 172.289062 L 61.535156 170.738281 "/>
<path style="fill:none;stroke-width:1.2;stroke-linecap:butt;stroke-linejoin:miter;stroke:rgb(0%,0%,0%);stroke-opacity:1;stroke-miterlimit:10;" d="M 61.535156 170.738281 L 43.742188 198.457031 "/>
<path style="fill:none;stroke-width:1.2;stroke-linecap:butt;stroke-linejoin:miter;stroke:rgb(0%,0%,0%);stroke-opacity:1;stroke-miterlimit:10;" d="M 66.277344 177.699219 L 52.042969 199.875 "/>
<path style="fill:none;stroke-width:1.2;stroke-linecap:butt;stroke-linejoin:miter;stroke:rgb(0%,0%,0%);stroke-opacity:1;stroke-miterlimit:10;" d="M 61.535156 170.738281 L 53.980469 156.105469 "/>
<path style="fill:none;stroke-width:1.2;stroke-linecap:butt;stroke-linejoin:miter;stroke:rgb(100%,0%,0%);stroke-opacity:1;stroke-miterlimit:10;" d="M 53.980469 156.105469 L 46.425781 141.472656 "/>
<path style="fill:none;stroke-width:1.2;stroke-linecap:butt;stroke-linejoin:miter;stroke:rgb(0%,0%,0%);stroke-opacity:1;stroke-miterlimit:10;" d="M 43.742188 198.457031 L 58.847656 227.726562 "/>
<path style="fill:none;stroke-width:1.2;stroke-linecap:butt;stroke-linejoin:miter;stroke:rgb(0%,0%,0%);stroke-opacity:1;stroke-miterlimit:10;" d="M 58.847656 227.726562 L 91.75 229.277344 "/>
<path style="fill:none;stroke-width:1.2;stroke-linecap:butt;stroke-linejoin:miter;stroke:rgb(0%,0%,0%);stroke-opacity:1;stroke-miterlimit:10;" d="M 62.503906 220.140625 L 88.824219 221.382812 "/>
<path style="fill:none;stroke-width:1.2;stroke-linecap:butt;stroke-linejoin:miter;stroke:rgb(100%,0%,0%);stroke-opacity:1;stroke-miterlimit:10;" d="M 46.425781 141.472656 L 55.324219 127.613281 "/>
<path style="fill:none;stroke-width:1.2;stroke-linecap:butt;stroke-linejoin:miter;stroke:rgb(0%,0%,0%);stroke-opacity:1;stroke-miterlimit:10;" d="M 55.324219 127.613281 L 64.222656 113.753906 "/>
<path style=" stroke:none;fill-rule:nonzero;fill:rgb(100%,100%,100%);fill-opacity:1;" d="M 41.425781 133.472656 L 52.425781 133.472656 L 52.425781 149.472656 L 41.425781 149.472656 Z M 41.425781 133.472656 "/>
<g style="fill:rgb(100%,0%,0%);fill-opacity:1;">
  <use xlink:href="#glyph0-1" x="41.425781" y="145.848633"/>
</g>
</g>
</svg>

<svg xmlns="http://www.w3.org/2000/svg" xmlns:xlink="http://www.w3.org/1999/xlink" width="300pt" height="300pt" viewBox="0 0 300 300"><defs><symbol overflow="visible"><path d="M.64 2.297v-11.47h6.5v11.47zm.735-.72h5.047V-8.436H1.375zm0 0"/></symbol><symbol overflow="visible" id="a"><path d="M5.125-8.61c-.938 0-1.684.352-2.234 1.047-.542.688-.812 1.633-.812 2.83 0 1.198.27 2.147.813 2.842.55.687 1.297 1.03 2.235 1.03.926 0 1.66-.343 2.203-1.03.55-.696.828-1.645.828-2.844 0-1.196-.277-2.14-.828-2.829-.543-.695-1.277-1.046-2.203-1.046zm0-1.046c1.32 0 2.38.45 3.172 1.344.8.898 1.203 2.09 1.203 3.578 0 1.5-.402 2.7-1.203 3.593C7.504-.255 6.445.186 5.125.186c-1.336 0-2.402-.44-3.203-1.328C1.13-2.036.734-3.235.734-4.735c0-1.49.395-2.68 1.188-3.579.8-.894 1.867-1.343 3.203-1.343zm0 0"/></symbol><symbol overflow="visible" id="b"><path d="M1.28-9.484H3l4.203 7.937v-7.937h1.25V0H6.72L2.515-7.922V0H1.28zm0 0"/></symbol><symbol overflow="visible" id="c"><path d="M1.28-9.484h1.282v3.89H7.22v-3.89H8.5V0H7.22v-4.516H2.562V0H1.28zm0 0"/></symbol></defs><g><path fill="#fff" d="M0 0h300v300H0z"/><path d="M216.31 35.25l-8.9 13.86" stroke-width="1.2" stroke="#000" stroke-miterlimit="10" fill="none"/><path d="M207.41 49.11l-8.898 13.86M198.512 62.97l7.554 14.632" stroke-width="1.2" stroke="#f00" stroke-miterlimit="10" fill="none"/><path d="M206.066 77.602l7.555 14.636" stroke-width="1.2" stroke="#000" stroke-miterlimit="10" fill="none"/><path d="M193.512 54.97h11v16h-11zm0 0" fill="#fff"/><use xlink:href="#a" x="193.512" y="67.345" fill="#f00"/><path d="M213.62 92.238l-17.792 27.72M195.828 119.957l7.555 14.633" stroke-width="1.2" stroke="#000" stroke-miterlimit="10" fill="none"/><path d="M203.383 134.59l7.55 14.637M210.934 149.227l-8.895 13.855" stroke-width="1.2" stroke="#00f" stroke-miterlimit="10" fill="none"/><path d="M202.04 163.082l-8.9 13.86" stroke-width="1.2" stroke="#000" stroke-miterlimit="10" fill="none"/><path d="M200.934 141.227h20v16h-20zm0 0" fill="#fff"/><g fill="#00f"><use xlink:href="#b" x="200.934" y="153.603"/><use xlink:href="#c" x="210.903" y="153.603"/></g><path d="M193.14 176.94l-16.45-.772" stroke-width="1.2" stroke="#000" stroke-miterlimit="10" fill="none"/><path d="M176.69 176.168l-16.452-.777" stroke-width="1.2" stroke="#00f" stroke-miterlimit="10" fill="none"/><path d="M189.488 184.53l-13.164-.62" stroke-width="1.2" stroke="#000" stroke-miterlimit="10" fill="none"/><path d="M176.324 183.91l-13.16-.62" stroke-width="1.2" stroke="#00f" stroke-miterlimit="10" fill="none"/><path d="M208.25 206.21l-15.11-29.27" stroke-width="1.2" stroke="#000" stroke-miterlimit="10" fill="none"/><path d="M160.238 175.39l-8.894 13.86" stroke-width="1.2" stroke="#00f" stroke-miterlimit="10" fill="none"/><path d="M151.344 189.25l-8.9 13.86" stroke-width="1.2" stroke="#000" stroke-miterlimit="10" fill="none"/><path d="M155.238 167.39h10v16h-10zm0 0" fill="#fff"/><use xlink:href="#b" x="155.238" y="179.767" fill="#00f"/><path d="M142.445 203.11L150 217.745" stroke-width="1.2" stroke="#000" stroke-miterlimit="10" fill="none"/><path d="M150 217.746l7.555 14.633" stroke-width="1.2" stroke="#00f" stroke-miterlimit="10" fill="none"/><path d="M150.844 202.484l6.043 11.707" stroke-width="1.2" stroke="#000" stroke-miterlimit="10" fill="none"/><path d="M156.887 214.19l6.043 11.708" stroke-width="1.2" stroke="#00f" stroke-miterlimit="10" fill="none"/><path d="M142.445 203.11l-32.902-1.55" stroke-width="1.2" stroke="#000" stroke-miterlimit="10" fill="none"/><path d="M157.555 232.38l16.45.776" stroke-width="1.2" stroke="#00f" stroke-miterlimit="10" fill="none"/><path d="M174.004 233.156l16.453.774" stroke-width="1.2" stroke="#000" stroke-miterlimit="10" fill="none"/><path d="M152.555 224.38h10v16h-10zm0 0" fill="#fff"/><use xlink:href="#b" x="152.555" y="236.755" fill="#00f"/><path d="M190.457 233.93l15.106 29.27M198.852 233.3l12.085 23.42M208.25 206.21l-17.793 27.72M205.563 263.2l32.902 1.55M238.465 264.75l17.793-27.72M233.723 257.793l14.234-22.176M256.258 237.03l-15.106-29.268M241.152 207.762l-32.902-1.55M237.496 215.348l-26.32-1.24M109.543 201.56l-15.106-29.27M101.148 202.188l-12.085-23.415M91.75 229.277l17.793-27.718M94.438 172.29l-32.903-1.552M61.535 170.738l-17.793 27.72M66.277 177.7l-14.234 22.175M61.535 170.738l-7.555-14.633" stroke-width="1.2" stroke="#000" stroke-miterlimit="10" fill="none"/><path d="M53.98 156.105l-7.554-14.632" stroke-width="1.2" stroke="#f00" stroke-miterlimit="10" fill="none"/><path d="M43.742 198.457l15.106 29.27M58.848 227.727l32.902 1.55M62.504 220.14l26.32 1.243" stroke-width="1.2" stroke="#000" stroke-miterlimit="10" fill="none"/><path d="M46.426 141.473l8.898-13.86" stroke-width="1.2" stroke="#f00" stroke-miterlimit="10" fill="none"/><path d="M55.324 127.613l8.9-13.86" stroke-width="1.2" stroke="#000" stroke-miterlimit="10" fill="none"/><path d="M41.426 133.473h11v16h-11zm0 0" fill="#fff"/><use xlink:href="#a" x="41.426" y="145.849" fill="#f00"/></g></svg>
